/* XPM */
static char *_717c66b23034210947faf1efe0a2237MPBiXv2l1dHYkN26[] = {
/* columns rows colors chars-per-pixel */
"64 64 5 1 ",
"  c black",
". c gray46",
"X c #B0BEC5",
"o c #CFD8DC",
"O c white",
/* pixels */
"OOOOOOOOOOOOOOOOOOOOOOOOOO              OOOOOOOOOOOOOOOOOOOOOOOO",
"OOOOOOOOOOOOOOOOOOOOOOOOOO              OOOOOOOOOOOOOOOOOOOOOOOO",
"OOOOOOOOOOOOOOOO            ....XXXXoo        OOOOOOOOOOOOOOOOOO",
"OOOOOOOOOOOOOOOO            ....XXXXoo        OOOOOOOOOOOOOOOOOO",
"OOOOOOOOOOOOOO    ....XXXX    ..XXXXoo  ......    OOOOOOOOOOOOOO",
"OOOOOOOOOOOOOO    ....XXXX    ..XXXXoo  ......    OOOOOOOOOOOOOO",
"OOOOOOOOOO    XX..  ..XXXXoo  ..XXXX    XXXXXX  XX    OOOOOOOOOO",
"OOOOOOOOOO    XX..  ..XXXXoo  ..XXXX    XXXXXX  XX    OOOOOOOOOO",
"OOOOOOOO    XXXXXX    ..XX          XXXXXXXXXX  XXXXXX  OOOOOOOO",
"OOOOOOOO    XXXXXX    ..XX          XXXXXXXXXX  XXXXXX  OOOOOOOO",
"OOOOOO  XXXX  ..XX                            XXXXXXXX  OOOOOOOO",
"OOOOOO  XXXX  ..XX                            XXXXXXXX  OOOOOOOO",
"OOOO  ooXX....                                oooooooo    OOOOOO",
"OOOO  ooXX....                                oooooooo    OOOOOO",
"OOOO  ooXX..                                          XXoo  OOOO",
"OOOO  ooXX..                                          XXoo  OOOO",
"OOOO      ..                                        XXXXXX  OOOO",
"OOOO      ..                                        XXXXXX  OOOO",
"OO  XXXXXX                                          XXXX      OO",
"OO  XXXXXX                                          XXXX      OO",
"OO  ..XXXX                                              ....  OO",
"OO  ..XXXX                                              ....  OO",
"    ......                                            XXXX..    ",
"    ......                                            XXXX..    ",
"  ..                                                  XXXX  ..  ",
"  ..                                                  XXXX  ..  ",
"  ..XXXX                                                  ....  ",
"  ..XXXX                                                  ....  ",
"  ..XXoo                                                XXXXXX  ",
"  ..XXoo                                                XXXXXX  ",
"    ..XX                                                XXXXXX  ",
"    ..XX                                                XXXXXX  ",
"  ..  XX                                                oo      ",
"  ..  XX                                                oo      ",
"  ..                                                      ....  ",
"  ..                                                      ....  ",
"  ..XXXX                                                  XXXX  ",
"  ..XXXX                                                  XXXX  ",
"  ....XX                                                XXXXXX  ",
"  ....XX                                                XXXXXX  ",
"    ....                                                ..XX    ",
"    ....                                                ..XX    ",
"  oo  ..                                                    oo  ",
"  oo  ..                                                    oo  ",
"  oooo                                                  XXXXXX  ",
"  oooo                                                  XXXXXX  ",
"  XXXX..                                                ..XX    ",
"  XXXX..                                                ..XX    ",
"  XXXX..                                                    XX  ",
"  XXXX..                                                    XX  ",
"    ....                                                XXXXXX  ",
"    ....                                                XXXXXX  ",
"  oo                                                    XXXXXX  ",
"  oo                                                    XXXXXX  ",
"  XXXX..                                                  XXXX  ",
"  XXXX..                                                  XXXX  ",
"    XX..                                                        ",
"    XX..                                                        ",
"  ..  ..                                                ....XX  ",
"  ..  ..                                                ....XX  ",
"  ..XX                                                  ..XXXX  ",
"  ..XX                                                  ..XXXX  ",
"  ..XXXX                                                ..XX    ",
"  ..XXXX                                                ..XX    "
};
