/* XPM */
static char *_5137beef4b54de5abf43bb4b02be767u0JuARcKzTkNdNXZ[] = {
/* columns rows colors chars-per-pixel */
"64 64 9 1 ",
"  c black",
". c #E91E63",
"X c #4CAF50",
"o c #FFEB3B",
"O c #8BC34A",
"+ c #9C27B0",
"@ c #2196F3",
"# c #FFCDD2",
"$ c white",
/* pixels */
"$$$$$$$$$$$$$$$$$$$$$$$$$$$$$$$$$$$$$$$$$$$$$$$$$$$$$$$$$$$$$$$$",
"$$$$$$$$$$$$$$$$$$$$$$$$$$$$$$$$$$$$$$$$$$$$$$$$$$$$$$$$$$$$$$$$",
"$$$$$$$$$$$$$$$$$$$$$$$$$$$$$$$$$$$$$$$$$$$$$$$$$$$$$$$$$$$$$$$$",
"$$$$$$$$$$$$$$$$$$$$$$$$$$$$$$$$$$$$$$$$$$$$$$$$$$$$$$$$$$$$$$$$",
"$$$$$$$$$$$$$$$$$$$$$$$$$$$$$$$$$$$$$$$$$$$$$$$$$$$$$$$$$$$$$$$$",
"$$$$$$$$$$$$$$$$$$$$$$$$$$$$$$$$$$$$$$$$$$$$$$$$$$$$$$$$$$$$$$$$",
"$$$$$$$$$$$$$$$$$$$$$$$$$$$$$$$$$$$$$$$$$$$$$$$$$$$$$$$$$$$$$$$$",
"$$$$$$$$$$$$$$$$$$$$$$$$$$$$$$$$$$$$$$$$$$$$$$$$$$$$$$$$$$$$$$$$",
"$$$$$$$$$$$$$$$$$$$$$$$$$$$$$OO$$$$$$$$$$$$$$$$$$$$$$$$$$$$$$$$$",
"$$$$$$$$$$$$$$$$$$$$$$$$$$$$$OO$$$$$$$$$$$$$$$$$$$$$$$$$$$$$$$$$",
"$$$$$$$$$$$$$$$$$$$$$$$$$XXXXOOXXXXXXXX$$$$$$$$$$$$$$$$$$$$$$$$$",
"$$$$$$$$$$$$$$$$$$$$$$$$$XXXXOOXXXXXXXX$$$$$$$$$$$$$$$$$$$$$$$$$",
"$$$$$$$$$$$$$$$$$$$$$$$XXOOXXXXOOOOOOOOOO$$$$$$$$$$$$$$$$$$$$$$$",
"$$$$$$$$$$$$$$$$$$$$$$$XXOOXXXXOOOOOOOOOO$$$$$$$$$$$$$$$$$$$$$$$",
"$$$$$$$$$$$$$$$$$$$XXOOXXXXXXOOOOXXXXXXXXXX$$$$$$$$$$$$$$$$$$$$$",
"$$$$$$$$$$$$$$$$$$$XXOOXXXXXXOOOOXXXXXXXXXX$$$$$$$$$$$$$$$$$$$$$",
"$$$$$$$$$$$$$$$$$XXOO$$$$####XXXX####$$$$OOXX$$$$$$$$$$$$$$$$$$$",
"$$$$$$$$$$$$$$$$$XXOO$$$$####XXXX####$$$$OOXX$$$$$$$$$$$$$$$$$$$",
"$$$$$$$$$$$$$$$XXXXOO$$....$$$$$$$$....$$OOXXXX$$$$$$$$$$$$$$$$$",
"$$$$$$$$$$$$$$$XXXXOO$$....$$$$$$$$....$$OOXXXX$$$$$$$$$$$$$$$$$",
"$$$$$$$$$$$$$$$$$XXOO$$$$$$..$$$$..$$$$$$OOXX$$$$$$$$$$$$$$$$$$$",
"$$$$$$$$$$$$$$$$$XXOO$$$$$$..$$$$..$$$$$$OOXX$$$$$$$$$$$$$$$$$$$",
"$$$$$$$$$$$$$$$XXOOXX$$$$$$$$$$$$$$@@$$$$XXOOXX$$$$$$$$$$$$$$$$$",
"$$$$$$$$$$$$$$$XXOOXX$$$$$$$$$$$$$$@@$$$$XXOOXX$$$$$$$$$$$$$$$$$",
"$$$$$$$$$$$$$$$XXOOXX$$@@@@@@$$$$@@@@@@$$XXOOXX$$$$$$$$$$$$$$$$$",
"$$$$$$$$$$$$$$$XXOOXX$$@@@@@@$$$$@@@@@@$$XXOOXX$$$$$$$$$$$$$$$$$",
"$$$$$$$$$$$$$$$$$XXXX$$++  ++$$$$++  ++$$XXXX$$$$$$$$$$$$$$$$$$$",
"$$$$$$$$$$$$$$$$$XXXX$$++  ++$$$$++  ++$$XXXX$$$$$$$$$$$$$$$$$$$",
"$$$$$$$$$$$$$$$OOXX$$$$$$@@$$$$$$@@@@@@$$##XXOO$$$$$$$$$$$$$$$$$",
"$$$$$$$$$$$$$$$OOXX$$$$$$@@$$$$$$@@@@@@$$##XXOO$$$$$$$$$$$$$$$$$",
"$$$$$$$$$$$$$$$OOXX$$$$$$$$$$....$$@@$$$$##XXOO$$$$$$$$$$$$$$$$$",
"$$$$$$$$$$$$$$$OOXX$$$$$$$$$$....$$@@$$$$##XXOO$$$$$$$$$$$$$$$$$",
"$$$$$$$$$$$$$XXOOOOXX$$..$$$$$$$$$$$$..$$XXOOOO$$$$$$$$$$$$$$$$$",
"$$$$$$$$$$$$$XXOOOOXX$$..$$$$$$$$$$$$..$$XXOOOO$$$$$$$$$$$$$$$$$",
"$$$$$$$$$$$$$$$OOXXXX##$$............$$##XXXXOO$$$$$$$$$$$$$$$$$",
"$$$$$$$$$$$$$$$OOXXXX##$$............$$##XXXXOO$$$$$$$$$$$$$$$$$",
"$$$$$$$$$$$$$$$XXOOXX  ##$$........$$##  XXOOOO$$$$$$$$$$$$$$$$$",
"$$$$$$$$$$$$$$$XXOOXX  ##$$........$$##  XXOOOO$$$$$$$$$$$$$$$$$",
"$$$$$$$$$$$$$$$$$OOXX    ##$$$$$$$$##    XXOO$$$$$$$$$$$$$$$$$$$",
"$$$$$$$$$$$$$$$$$OOXX    ##$$$$$$$$##    XXOO$$$$$$$$$$$$$$$$$$$",
"$$$$$$$$$$$$$$$$$$$  ....  ########  ....  $$$$$$$$$$$$$$$$$$$$$",
"$$$$$$$$$$$$$$$$$$$  ....  ########  ....  $$$$$$$$$$$$$$$$$$$$$",
"$$$$$$$$$$$$$$$$$$$  ......XXXXXXXX......  $$$$$$$$$$$$$$$$$$$$$",
"$$$$$$$$$$$$$$$$$$$  ......XXXXXXXX......  $$$$$$$$$$$$$$$$$$$$$",
"$$$$$$$$$$$$$$$$$  ....  ....XXXX....  ....  $$$$$$$$$$$$$$$$$$$",
"$$$$$$$$$$$$$$$$$  ....  ....XXXX....  ....  $$$$$$$$$$$$$$$$$$$",
"$$$$$$$$$$$$$$$$$  XXXX  ....oooo....  XXXX  $$$$$$$$$$$$$$$$$$$",
"$$$$$$$$$$$$$$$$$  XXXX  ....oooo....  XXXX  $$$$$$$$$$$$$$$$$$$",
"$$$$$$$$$$$$$$$  ####  @@  ..oooo..  @@  ####  $$$$$$$$$$$$$$$$$",
"$$$$$$$$$$$$$$$  ####  @@  ..oooo..  @@  ####  $$$$$$$$$$$$$$$$$",
"$$$$$$$$$$$$$$$  ####    ....oooo....    ####  $$$$$$$$$$$$$$$$$",
"$$$$$$$$$$$$$$$  ####    ....oooo....    ####  $$$$$$$$$$$$$$$$$",
"$$$$$$$$$$$$$$$$$    $$  ............  $$    $$$$$$$$$$$$$$$$$$$",
"$$$$$$$$$$$$$$$$$    $$  ............  $$    $$$$$$$$$$$$$$$$$$$",
"$$$$$$$$$$$$$$$$$$$$$  ......    ......  $$$$$$$$$$$$$$$$$$$$$$$",
"$$$$$$$$$$$$$$$$$$$$$  ......    ......  $$$$$$$$$$$$$$$$$$$$$$$",
"$$$$$$$$$$$$$$$$$$$$$  ....  $$$$  ....  $$$$$$$$$$$$$$$$$$$$$$$",
"$$$$$$$$$$$$$$$$$$$$$  ....  $$$$  ....  $$$$$$$$$$$$$$$$$$$$$$$",
"$$$$$$$$$$$$$$$$$$$$$        $$$$        $$$$$$$$$$$$$$$$$$$$$$$",
"$$$$$$$$$$$$$$$$$$$$$        $$$$        $$$$$$$$$$$$$$$$$$$$$$$",
"$$$$$$$$$$$$$$$$$$$$$$$$$$$$$$$$$$$$$$$$$$$$$$$$$$$$$$$$$$$$$$$$",
"$$$$$$$$$$$$$$$$$$$$$$$$$$$$$$$$$$$$$$$$$$$$$$$$$$$$$$$$$$$$$$$$",
"$$$$$$$$$$$$$$$$$$$$$$$$$$$$$$$$$$$$$$$$$$$$$$$$$$$$$$$$$$$$$$$$",
"$$$$$$$$$$$$$$$$$$$$$$$$$$$$$$$$$$$$$$$$$$$$$$$$$$$$$$$$$$$$$$$$"
};
