/* XPM */
static char *_3255f162bae425af0989c2e2c37bb80tG2NahuSKVtkmUyB[] = {
/* columns rows colors chars-per-pixel */
"64 64 6 1 ",
"  c black",
". c #FFEB3B",
"X c #90A4AE",
"o c #CFD8DC",
"O c #F1F8E9",
"+ c white",
/* pixels */
"++++++++++++++++++++++++++++++++++++++++++++++++++++++++++++++++",
"++++++++++++++++++++++++++++++++++++++++++++++++++++++++++++++++",
"++++++++++++++++++++++++++++++++++++++++++++++++++++++++++++++++",
"++++++++++++++++++++++++++++++++++++++++++++++++++++++++++++++++",
"++++++++++++++++++++++++++++++++++++++++++++++++++++++++++++++++",
"++++++++++++++++++++++++++++++++++++++++++++++++++++++++++++++++",
"++++++++++++++++++  ++++++++++++++++++++++  ++++++++++++++++++++",
"++++++++++++++++++  ++++++++++++++++++++++  ++++++++++++++++++++",
"++++++++++++++++++    ++++++++++++++++++    ++++++++++++++++++++",
"++++++++++++++++++    ++++++++++++++++++    ++++++++++++++++++++",
"++++++++++++++++++      ++          ++      ++++++++++++++++++++",
"++++++++++++++++++      ++          ++      ++++++++++++++++++++",
"++++++++++++++++++                          ++++++++++++++++++++",
"++++++++++++++++++                          ++++++++++++++++++++",
"++++++++++++++++++                          ++++++++++++++++++++",
"++++++++++++++++++                          ++++++++++++++++++++",
"++++++++++++++++++                          ++++++++++++++++++++",
"++++++++++++++++++                          ++++++++++++++++++++",
"++++++++++++++++++                          ++++++++++++++++++++",
"++++++++++++++++++                          ++++++++++++++++++++",
"++++++++++++++++                              ++++++++++++++++++",
"++++++++++++++++                              ++++++++++++++++++",
"++++++++++++++++                              ++++++++++++++++++",
"++++++++++++++++                              ++++++++++++++++++",
"++++++++++++++++                              ++++++++++++++++++",
"++++++++++++++++                              ++++++++++++++++++",
"++++++++++++++++                              ++++++++++++++++++",
"++++++++++++++++                              ++++++++++++++++++",
"++++++++++++++++      ++++          ++++      ++++++++++++++++++",
"++++++++++++++++      ++++          ++++      ++++++++++++++++++",
"++++++++++++++++++      ++++      ++++      ++++++++++++++++++++",
"++++++++++++++++++      ++++      ++++      ++++++++++++++++++++",
"++++++++++++++++++                          ++++++++++++++++++++",
"++++++++++++++++++                          ++++++++++++++++++++",
"++++++++++++++++++++  ++++++++OO++++++++  ++++++++++++++++++++++",
"++++++++++++++++++++  ++++++++++++++++++  ++++++++++++++++++++++",
"++++++++++++++++++++++    ++++++++++    ++++++++++++++++++++++++",
"++++++++++++++++++++++    ++++++++++    ++++++++++++++++++++++++",
"++++++++++++++++++++  oo              oo  ++++++++++++++++++++++",
"++++++++++++++++++++  oo              oo  ++++++++++++++++++++++",
"++++++++++++++++++  oooooooooooooooooooooo  ++++++++++++++++++++",
"++++++++++++++++++  oooooooooooooooooooooo  ++++++++++++++++++++",
"++++++++++++++++  oooo  oooo  ..  oooo  oooo  ++++++++++++++++++",
"++++++++++++++++  oooo  oooo  ..  oooo  oooo  ++++++++++++++++++",
"++++++++++++++  XXXXoo  oooo..  ..oooo  ooXXXX  ++++++++++++++++",
"++++++++++++++  XXXXoo  oooo..  ..oooo  ooXXXX  ++++++++++++++++",
"++++++++++++++  XXXX    oooooooooooooo    XXXX  ++++++++++++++++",
"++++++++++++++  XXXX    oooooooooooooo    XXXX  ++++++++++++++++",
"++++++++++++++++        ..............        ++++++++++++++++++",
"++++++++++++++++        ..............        ++++++++++++++++++",
"++++++++++++++        oooo         ooooo        ++++++++++++++++",
"++++++++++++++        oooo         ooooo        ++++++++++++++++",
"++++++++++++          oooooo      oooooo          ++++++++++++++",
"++++++++++++          oooooo      oooooo          ++++++++++++++",
"++++++++++            oooo          oooo            ++++++++++++",
"++++++++++            oooo          oooo            ++++++++++++",
"++++++++++++        XXXXXX          XXXXXX        ++++++++++++++",
"++++++++++++        XXXXXX          XXXXXX        ++++++++++++++",
"++++++++++++++++++          ++++++          ++++++++++++++++++++",
"++++++++++++++++++          ++++++          ++++++++++++++++++++",
"++++++++++++++++++++++++++++++++++++++++++++++++++++++++++++++++",
"++++++++++++++++++++++++++++++++++++++++++++++++++++++++++++++++",
"++++++++++++++++++++++++++++++++++++++++++++++++++++++++++++++++",
"++++++++++++++++++++++++++++++++++++++++++++++++++++++++++++++++"
};
